public/assets/images/icons/green/file-pdf.svg

<svg width="16" height="16" xmlns="http://www.w3.org/2000/svg" viewBox="0 0 16 16" shape-rendering="geometricPrecision" fill="#00962d"><path d="M10.021 15.177l3.437-3.165h-3.437z"/><path d="M2.02 0v16h7.021v-4.905h4.941V0H2.02zM13 9.97H8v5H3.083v-14H13v9z"/><path fill-rule="evenodd" clip-rule="evenodd" d="M10.313 6.987c.843.67 1.525.392 1.426.264-.302-.391-.896-.391-1.426-.264zm1.093-.377c-.844-.286-1.966-.002-1.923.034-.567-.279-1.33-.685-1.749-2.018-.703-2.234 0-2.955.046-1.558l.142.948s.485-1.184.172-2.047c-.274-.752-1.063-.639-1.11.751-.026.766.159 1.918.244 2.097 0 0-.73 2.149-1.813 3.84-1.051 1.642-1.115 1.088-.86.541.303-.65.817-.991.989-1.263 0 0-.798.062-1.418 1.127-.392.673-.439 2.345 1.233.532.332-.36.803-1.116 1.018-1.566 0 0 .973-.425 3.294-.875 0 0 .626.457 1.438.645 1.009.232 2.046-.594.297-1.188zm-4.749.708l.845-1.941c.56 1.19 1.353 1.433 1.353 1.433-.344.044-2.198.508-2.198.508z"/></svg>

<?xml version="1.0"?><!DOCTYPE svg PUBLIC "-//W3C//DTD SVG 1.1//EN" "http://www.w3.org/Graphics/SVG/1.1/DTD/svg11.dtd"><svg width="16px" height="16px" xmlns="http://www.w3.org/2000/svg" viewBox="0 0 16 16" shape-rendering="geometricPrecision" fill="#00962d"><g><g><polygon points="10.021,15.177 13.458,12.012 10.021,12.012"/><path d="M2.02,0v16h7.021v-4.905h4.941V0H2.02z M13,9.97h-5l0,5H3.083v-14H13V9.97z"/></g><path fill-rule="evenodd" clip-rule="evenodd" d="M10.313,6.987c0.843,0.67,1.525,0.392,1.426,0.264 C11.437,6.86,10.843,6.86,10.313,6.987z M11.406,6.61c-0.844-0.286-1.966-0.002-1.923,0.034C8.916,6.365,8.153,5.959,7.734,4.626 c-0.703-2.234,0-2.955,0.046-1.558l0.142,0.948c0,0,0.485-1.184,0.172-2.047C7.82,1.217,7.031,1.33,6.984,2.72 C6.958,3.486,7.143,4.638,7.228,4.817c0,0-0.73,2.149-1.813,3.84c-1.051,1.642-1.115,1.088-0.86,0.541 c0.303-0.65,0.817-0.991,0.989-1.263c0,0-0.798,0.062-1.418,1.127c-0.392,0.673-0.439,2.345,1.233,0.532 c0.332-0.36,0.803-1.116,1.018-1.566c0,0,0.973-0.425,3.294-0.875c0,0,0.626,0.457,1.438,0.645 C12.118,8.03,13.155,7.204,11.406,6.61z M6.657,7.318l0.845-1.941c0.56,1.19,1.353,1.433,1.353,1.433 C8.511,6.854,6.657,7.318,6.657,7.318z"/></g></svg>
